images/reef.svg

<svg height="250" viewBox="0 0 250 250" width="250" xmlns="http://www.w3.org/2000/svg" xmlns:xlink="http://www.w3.org/1999/xlink"><linearGradient id="a" gradientTransform="matrix(.957854 0 0 -.961538 124.521073 125)" gradientUnits="userSpaceOnUse" x1="320.329987" x2="320.329987" y1="-50.181801" y2="432.085999"><stop offset="0" stop-color="#9e00f6"/><stop offset="1" stop-color="#fa7564"/></linearGradient><path d="m125.023438 246.949219c67.089843 0 121.480468-54.597657 121.480468-121.949219s-54.390625-121.949219-121.480468-121.949219c-67.09375 0-121.484376 54.597657-121.484376 121.949219s54.390626 121.949219 121.484376 121.949219zm0 0" fill="#fff"/><path d="m155.503906 195.300781v-56.300781h-60.964844v56.300781h-27.84375v-140.601562h27.84375v56.300781h60.964844v-56.300781h27.84375v140.601562zm0 0" fill="#4d2176"/><path d="m249.042969 125c0-69.035156-55.75-125-124.523438-125-68.769531 0-124.519531 55.964844-124.519531 125s55.75 125 124.519531 125c68.773438 0 124.523438-55.964844 124.523438-125zm0 0" fill="url(#a)"/><path d="m115.902344 125.109375c-.402344 0-.808594-.035156-1.210938-.101563 1.75-3.714843 3.429688-7.324218 5.042969-10.835937 1.617187-3.582031 3.027344-6.855469 4.238281-9.828125 1.210938-2.96875 2.1875-5.605469 2.925782-7.902344.742187-2.292968 1.113281-4.082031 1.113281-5.367187 0-1.28125-.203125-2.328125-.605469-3.140625-.40625-.875-.875-1.519532-1.414062-1.921875-.539063-.472657-1.144532-.777344-1.816407-.914063-.671875-.203125-1.242187-.304687-1.714843-.304687-1.75 0-3.734376 1.015625-5.953126 3.039062-2.152343 1.960938-4.472656 4.59375-6.960937 7.902344-2.425781 3.308594-4.945313 7.125-7.570313 11.445313-2.554687 4.253906-5.113281 8.679687-7.667968 13.269531l-29.765625 54.699219c-.742188 1.417968-1.3125 2.9375-1.71875 4.558593-.402344 1.621094-.605469 3.207031-.605469 4.761719 0 1.078125.136719 2.226562.40625 3.441406.335938 1.214844.875 2.332032 1.613281 3.34375.738281 1.011719 1.78125 1.855469 3.128907 2.53125 1.34375.675782 3.09375 1.015625 5.246093 1.015625 2.625 0 5.046875-.945312 7.265625-2.839843 2.21875-1.890626 4.304688-4.351563 6.257813-7.394532 1.949219-3.105468 3.730469-6.582031 5.347656-10.429687 1.613281-3.917969 3.160156-7.867188 4.640625-11.851563s2.859375-7.835937 4.136719-11.546875c1.277343-3.785156 2.523437-7.058593 3.734375-9.828125 2.152344 7.023438 4.605468 13.710938 7.363281 20.058594 2.757813 6.277344 5.820313 11.78125 9.183594 16.507812 3.363281 4.726563 7.097656 8.476563 11.203125 11.246094 4.101562 2.769532 8.574218 4.152344 13.417968 4.152344 5.921876 0 12.175782-1.484375 18.769532-4.457031 6.660156-3.039063 13.453125-7.832031 20.382812-14.382813 2.351563-2.230468 4-4.355468 4.941406-6.382812 1.011719-2.09375 1.515626-3.917969 1.515626-5.46875 0-1.621094-.472657-2.90625-1.414063-3.851563-.941406-.945312-2.085937-1.417969-3.429687-1.417969-2.152344 0-4.273438 1.183594-6.355469 3.546876-2.222657 2.972656-4.84375 5.570312-7.871094 7.800781-2.558594 1.957031-5.753906 3.746093-9.585937 5.367187-3.835938 1.621094-8.207032 2.429688-13.117188 2.429688h-1.414062c-.472657 0-.976563-.03125-1.511719-.101563-2.691407-.203125-5.25-1.550781-7.671875-4.050781-2.421875-2.496094-4.640625-5.503906-6.65625-9.015625-1.953125-3.578125-3.636719-7.324219-5.046875-11.242187-1.347657-3.984376-2.320313-7.5625-2.925781-10.738282 4.304687-.742187 8.742187-1.957031 13.320312-3.644531 4.640625-1.6875 9.148438-3.75 13.519531-6.179687 4.371094-2.429688 8.476563-5.199219 12.308594-8.304688 3.902344-3.175781 7.300781-6.617188 10.191406-10.332031 2.894531-3.78125 5.183594-7.800781 6.863281-12.054688 1.75-4.324219 2.625-8.847656 2.625-13.574219 0-7.023437-1.449218-13.167968-4.339843-18.433593-2.824219-5.269531-6.660157-9.625-11.503907-13.066407-4.84375-3.511718-10.425781-6.148437-16.75-7.902343-6.257812-1.757813-12.816406-2.632813-19.675781-2.632813-6.996093 0-13.625.742188-19.878906 2.226563-6.257813 1.417969-12.042969 3.34375-17.355469 5.773437-5.246094 2.363282-9.988281 5.132813-14.226562 8.308594-4.238282 3.105469-7.839844 6.347656-10.796875 9.722656-2.894531 3.375-5.148438 6.753906-6.761719 10.128906-1.546875 3.375-2.320312 6.515626-2.320312 9.421876 0 3.105468.839843 5.535156 2.523437 7.292968 1.679687 1.6875 4.203125 2.53125 7.566406 2.53125 2.488281 0 4.574219-.574218 6.257813-1.722656 1.679687-1.148438 3.195312-2.632812 4.539062-4.457031 1.414063-1.824219 2.757813-3.914063 4.035156-6.28125 1.277344-2.363281 2.691407-4.792969 4.238282-7.292969 1.613281-2.496094 3.5-4.929688 5.652344-7.292969 2.21875-2.363281 4.910156-4.457031 8.070312-6.277343 3.230469-1.824219 7.03125-3.308594 11.402344-4.457032 4.441406-1.148437 9.722656-1.722656 15.84375-1.722656 5.449218 0 10.125.640625 14.027344 1.925781 3.964843 1.28125 7.195312 3.003907 9.683593 5.164063 2.558594 2.160156 4.40625 4.695312 5.550781 7.597656 1.210938 2.902344 1.816407 5.976562 1.816407 9.21875 0 4.523438-1.144531 9.183594-3.429688 13.976562-2.21875 4.796876-5.28125 9.152344-9.183593 13.066407-3.902344 3.917969-8.476563 7.160156-13.722657 9.726562-5.179687 2.496094-10.695312 3.746094-16.550781 3.746094zm0 0" fill="#fff"/></svg>

<svg xmlns="http://www.w3.org/2000/svg" xmlns:xlink="http://www.w3.org/1999/xlink" width="250px" height="250px" viewBox="0 0 250 250" version="1.1">
<defs>
<linearGradient id="linear0" gradientUnits="userSpaceOnUse" x1="320.329987" y1="-50.181801" x2="320.329987" y2="432.085999" gradientTransform="matrix(0.957854,0,0,-0.961538,124.521073,125)">
<stop offset="0" style="stop-color:rgb(61.960787%,0%,96.470588%);stop-opacity:1;"/>
<stop offset="1" style="stop-color:rgb(98.039216%,45.882353%,39.215687%);stop-opacity:1;"/>
</linearGradient>
</defs>
<g id="surface1">
<path style=" stroke:none;fill-rule:nonzero;fill:rgb(100%,100%,100%);fill-opacity:1;" d="M 125.023438 246.949219 C 192.113281 246.949219 246.503906 192.351562 246.503906 125 C 246.503906 57.648438 192.113281 3.050781 125.023438 3.050781 C 57.929688 3.050781 3.539062 57.648438 3.539062 125 C 3.539062 192.351562 57.929688 246.949219 125.023438 246.949219 Z M 125.023438 246.949219 "/>
<path style=" stroke:none;fill-rule:nonzero;fill:rgb(30.19608%,12.941177%,46.27451%);fill-opacity:1;" d="M 155.503906 195.300781 L 155.503906 139 L 94.539062 139 L 94.539062 195.300781 L 66.695312 195.300781 L 66.695312 54.699219 L 94.539062 54.699219 L 94.539062 111 L 155.503906 111 L 155.503906 54.699219 L 183.347656 54.699219 L 183.347656 195.300781 Z M 155.503906 195.300781 "/>
<path style=" stroke:none;fill-rule:nonzero;fill:url(#linear0);" d="M 249.042969 125 C 249.042969 55.964844 193.292969 0 124.519531 0 C 55.75 0 0 55.964844 0 125 C 0 194.035156 55.75 250 124.519531 250 C 193.292969 250 249.042969 194.035156 249.042969 125 Z M 249.042969 125 "/>
<path style=" stroke:none;fill-rule:nonzero;fill:rgb(100%,100%,100%);fill-opacity:1;" d="M 115.902344 125.109375 C 115.5 125.109375 115.09375 125.074219 114.691406 125.007812 C 116.441406 121.292969 118.121094 117.683594 119.734375 114.171875 C 121.351562 110.589844 122.761719 107.316406 123.972656 104.34375 C 125.183594 101.375 126.160156 98.738281 126.898438 96.441406 C 127.640625 94.148438 128.011719 92.359375 128.011719 91.074219 C 128.011719 89.792969 127.808594 88.746094 127.40625 87.933594 C 127 87.058594 126.53125 86.414062 125.992188 86.011719 C 125.453125 85.539062 124.847656 85.234375 124.175781 85.097656 C 123.503906 84.894531 122.933594 84.792969 122.460938 84.792969 C 120.710938 84.792969 118.726562 85.808594 116.507812 87.832031 C 114.355469 89.792969 112.035156 92.425781 109.546875 95.734375 C 107.121094 99.042969 104.601562 102.859375 101.976562 107.179688 C 99.421875 111.433594 96.863281 115.859375 94.308594 120.449219 L 64.542969 175.148438 C 63.800781 176.566406 63.230469 178.085938 62.824219 179.707031 C 62.421875 181.328125 62.21875 182.914062 62.21875 184.46875 C 62.21875 185.546875 62.355469 186.695312 62.625 187.910156 C 62.960938 189.125 63.5 190.242188 64.238281 191.253906 C 64.976562 192.265625 66.019531 193.109375 67.367188 193.785156 C 68.710938 194.460938 70.460938 194.800781 72.613281 194.800781 C 75.238281 194.800781 77.660156 193.855469 79.878906 191.960938 C 82.097656 190.070312 84.183594 187.609375 86.136719 184.566406 C 88.085938 181.460938 89.867188 177.984375 91.484375 174.136719 C 93.097656 170.21875 94.644531 166.269531 96.125 162.285156 C 97.605469 158.300781 98.984375 154.449219 100.261719 150.738281 C 101.539062 146.953125 102.785156 143.679688 103.996094 140.910156 C 106.148438 147.933594 108.601562 154.621094 111.359375 160.96875 C 114.117188 167.246094 117.179688 172.75 120.542969 177.476562 C 123.90625 182.203125 127.640625 185.953125 131.746094 188.722656 C 135.847656 191.492188 140.320312 192.875 145.164062 192.875 C 151.085938 192.875 157.339844 191.390625 163.933594 188.417969 C 170.59375 185.378906 177.386719 180.585938 184.316406 174.035156 C 186.667969 171.804688 188.316406 169.679688 189.257812 167.652344 C 190.269531 165.558594 190.773438 163.734375 190.773438 162.183594 C 190.773438 160.5625 190.300781 159.277344 189.359375 158.332031 C 188.417969 157.386719 187.273438 156.914062 185.929688 156.914062 C 183.777344 156.914062 181.65625 158.097656 179.574219 160.460938 C 177.351562 163.433594 174.730469 166.03125 171.703125 168.261719 C 169.144531 170.21875 165.949219 172.007812 162.117188 173.628906 C 158.28125 175.25 153.910156 176.058594 149 176.058594 L 147.585938 176.058594 C 147.113281 176.058594 146.609375 176.027344 146.074219 175.957031 C 143.382812 175.753906 140.824219 174.40625 138.402344 171.90625 C 135.980469 169.410156 133.761719 166.402344 131.746094 162.890625 C 129.792969 159.3125 128.109375 155.566406 126.699219 151.648438 C 125.351562 147.664062 124.378906 144.085938 123.773438 140.910156 C 128.078125 140.167969 132.515625 138.953125 137.09375 137.265625 C 141.734375 135.578125 146.242188 133.515625 150.613281 131.085938 C 154.984375 128.65625 159.089844 125.886719 162.921875 122.78125 C 166.824219 119.605469 170.222656 116.164062 173.113281 112.449219 C 176.007812 108.667969 178.296875 104.648438 179.976562 100.394531 C 181.726562 96.070312 182.601562 91.546875 182.601562 86.820312 C 182.601562 79.796875 181.152344 73.652344 178.261719 68.386719 C 175.4375 63.117188 171.601562 58.761719 166.757812 55.320312 C 161.914062 51.808594 156.332031 49.171875 150.007812 47.417969 C 143.75 45.660156 137.191406 44.785156 130.332031 44.785156 C 123.335938 44.785156 116.707031 45.527344 110.453125 47.011719 C 104.195312 48.429688 98.410156 50.355469 93.097656 52.785156 C 87.851562 55.148438 83.109375 57.917969 78.871094 61.09375 C 74.632812 64.199219 71.03125 67.441406 68.074219 70.816406 C 65.179688 74.191406 62.925781 77.570312 61.3125 80.945312 C 59.765625 84.320312 58.992188 87.460938 58.992188 90.367188 C 58.992188 93.472656 59.832031 95.902344 61.515625 97.660156 C 63.195312 99.347656 65.71875 100.191406 69.082031 100.191406 C 71.570312 100.191406 73.65625 99.617188 75.339844 98.46875 C 77.019531 97.320312 78.535156 95.835938 79.878906 94.011719 C 81.292969 92.1875 82.636719 90.097656 83.914062 87.730469 C 85.191406 85.367188 86.605469 82.9375 88.152344 80.4375 C 89.765625 77.941406 91.652344 75.507812 93.804688 73.144531 C 96.023438 70.78125 98.714844 68.6875 101.875 66.867188 C 105.105469 65.042969 108.90625 63.558594 113.277344 62.410156 C 117.71875 61.261719 123 60.6875 129.121094 60.6875 C 134.570312 60.6875 139.246094 61.328125 143.148438 62.613281 C 147.113281 63.894531 150.34375 65.617188 152.832031 67.777344 C 155.390625 69.9375 157.238281 72.472656 158.382812 75.375 C 159.59375 78.277344 160.199219 81.351562 160.199219 84.59375 C 160.199219 89.117188 159.054688 93.777344 156.769531 98.570312 C 154.550781 103.367188 151.488281 107.722656 147.585938 111.636719 C 143.683594 115.554688 139.109375 118.796875 133.863281 121.363281 C 128.683594 123.859375 123.167969 125.109375 117.3125 125.109375 Z M 115.902344 125.109375 "/>
</g>
</svg>
